X:1
T:Anglais efter Per Nilsson Dahlberg
T:(SvL Skne nr. 236)
S:efter Per Nilsson Dahlberg
S:Svenska Ltar
R:Anglais
Z:Patrik Mnsson, 2009-01-03
O:Nym, Skne
M:2/4
L:1/16
K:Bb
|: B'DFB d2B2 | ABcd g2f2 | (fe)gf (fe)ec | (ed)cd B4 :|
|: b2Bd f2gf | (ed)cd e4 | CFAc d2e2 | (gf)ec B4 :|
